**kern	**kern
*staff2	*staff1
*clefF4	*clefG2
*k[b-]	*k[b-]
*M3/4	*M3/4
=-	=-
8r	8c
=414	=414
8r	(8f
(8A	4c)
8GL	.
8FJ)	(8f
=415	=415
8r	8g
(8E	4c)
8DL	.
8CJ	(8g
=416	=416
8FL	8aL
8C#J	8eJ
8DL)	8fL)
8BB-'J	8g'J 8b-'
=417	=417
4.C	(4f 4a
.	8eL) 8g
8r	8cc'J
=418	=418
8FF' 8F'	8a' 8cc'
(4GG 4G	(4g 4b-
8AA) 8A	8f) 8a
=419	=419
8BB-' 8B-'	8b-' 8dd'
(4C 4c	(4g 4b- 4ee
8D) 8d	8f) 8a 8ff
=420	=420
*^	*^
8A'L	8CL	8f'L	8c'L
8A'J	8CJ	8f'J	8c'J
(8B-L	4C	(8gL	4e
8GJ)	.	8ccJ)	.
=421	=421	=421	=421
(4G	4C	(4b-	(4e
8AL)	8F	8aL)	8f)
*clefG2	*clefG2	*	*
*	*	*v	*v
8F'J 8f'	8r	8cc'J 8aa' 8ccc'
*v	*v	*
=422	=422
8F' 8f'	8cc' 8aa' 8ccc'
(4G 4g	(4cc 4ee 4bb-
8A) 8a	8cc) 8ff 8aa
=423	=423
8B-' 8b-'	8dd' 8ff' 8bb-' 8ddd'
(4B- 4b-	(4ee 4gg 4ddd- 4eee
8B) 8b	8ff) 8aa- 8ddd 8fff
=424	=424
*	*^
4c 4cc	8aa-L	4ff
.	8aa-J	.
4r	8aa-L	4r
.	8aa-J	.
*	*v	*v
=	=
*-	*-
